img/arrow-68.svg

<svg fill="none" height="14" viewBox="0 0 17 14" width="17" xmlns="http://www.w3.org/2000/svg"><path d="m15.918 7.6011c.3306-.33063.3306-.86669 0-1.19731l-5.3879-5.38791c-.3306-.330626-.8667-.330626-1.19732 0-.33063.33063-.33063.86669 0 1.19731l4.78922 4.78925-4.78922 4.78926c-.33063.3306-.33063.8667 0 1.1973.33062.3306.86672.3306 1.19732 0zm-14.1447-1.44529c-.46758 0-.846629.37905-.846629.84663s.379049.84663.846629.84663zm13.546 0h-13.546v1.69326h13.546z" fill="#0080ff"/></svg>

<svg width="17" height="14" viewBox="0 0 17 14" fill="none" xmlns="http://www.w3.org/2000/svg">
<path d="M15.918 7.6011C16.2486 7.27047 16.2486 6.73441 15.918 6.40379L10.5301 1.01588C10.1995 0.685254 9.6634 0.685254 9.33278 1.01588C9.00215 1.34651 9.00215 1.88257 9.33278 2.21319L14.122 7.00244L9.33278 11.7917C9.00215 12.1223 9.00215 12.6584 9.33278 12.989C9.6634 13.3196 10.1995 13.3196 10.5301 12.989L15.918 7.6011ZM1.7733 6.15581C1.30572 6.15581 0.926671 6.53486 0.926671 7.00244C0.926671 7.47002 1.30572 7.84907 1.7733 7.84907V6.15581ZM15.3193 6.15581L1.7733 6.15581V7.84907L15.3193 7.84907V6.15581Z" fill="#0080FF"/>
</svg>
